assets/images/posts/bigpipe-sequence.svg

<?xml version="1.0" encoding="UTF-8" standalone="no"?>
<svg viewBox="0 0 840 82" version="1.1" xmlns="http://www.w3.org/2000/svg" xmlns:xlink="http://www.w3.org/1999/xlink" xmlns:sketch="http://www.bohemiancoding.com/sketch/ns">
    <!-- Generator: Sketch 3.0.1 (7597) - http://www.bohemiancoding.com/sketch -->
    <title>Bigpipe - Sequence of steps.</title>
    <description>Sequence of the different stages during a pagelet generation</description>
    <defs>
        <filter x="-50%" y="-50%" width="200%" height="200%" filterUnits="objectBoundingBox" id="filter-1">
            <feOffset dx="1" dy="1" in="SourceAlpha" result="shadowOffsetInner1"></feOffset>
            <feGaussianBlur stdDeviation="1.5" in="shadowOffsetInner1" result="shadowBlurInner1"></feGaussianBlur>
            <feComposite in="shadowBlurInner1" in2="SourceAlpha" operator="arithmetic" k2="-1" k3="1" result="shadowInnerInner1"></feComposite>
            <feColorMatrix values="0 0 0 0 1   0 0 0 0 1   0 0 0 0 1  0 0 0 0.35 0" in="shadowInnerInner1" type="matrix" result="shadowMatrixInner1"></feColorMatrix>
            <feMerge>
                <feMergeNode in="SourceGraphic"></feMergeNode>
                <feMergeNode in="shadowMatrixInner1"></feMergeNode>
            </feMerge>
        </filter>
        <filter x="-50%" y="-50%" width="200%" height="200%" filterUnits="objectBoundingBox" id="filter-2">
            <feOffset dx="1" dy="1" in="SourceAlpha" result="shadowOffsetInner1"></feOffset>
            <feGaussianBlur stdDeviation="1.5" in="shadowOffsetInner1" result="shadowBlurInner1"></feGaussianBlur>
            <feComposite in="shadowBlurInner1" in2="SourceAlpha" operator="arithmetic" k2="-1" k3="1" result="shadowInnerInner1"></feComposite>
            <feColorMatrix values="0 0 0 0 1   0 0 0 0 1   0 0 0 0 1  0 0 0 0.35 0" in="shadowInnerInner1" type="matrix" result="shadowMatrixInner1"></feColorMatrix>
            <feMerge>
                <feMergeNode in="SourceGraphic"></feMergeNode>
                <feMergeNode in="shadowMatrixInner1"></feMergeNode>
            </feMerge>
        </filter>
        <filter x="-50%" y="-50%" width="200%" height="200%" filterUnits="objectBoundingBox" id="filter-3">
            <feOffset dx="1" dy="1" in="SourceAlpha" result="shadowOffsetInner1"></feOffset>
            <feGaussianBlur stdDeviation="1.5" in="shadowOffsetInner1" result="shadowBlurInner1"></feGaussianBlur>
            <feComposite in="shadowBlurInner1" in2="SourceAlpha" operator="arithmetic" k2="-1" k3="1" result="shadowInnerInner1"></feComposite>
            <feColorMatrix values="0 0 0 0 1   0 0 0 0 1   0 0 0 0 1  0 0 0 0.35 0" in="shadowInnerInner1" type="matrix" result="shadowMatrixInner1"></feColorMatrix>
            <feMerge>
                <feMergeNode in="SourceGraphic"></feMergeNode>
                <feMergeNode in="shadowMatrixInner1"></feMergeNode>
            </feMerge>
        </filter>
        <filter x="-50%" y="-50%" width="200%" height="200%" filterUnits="objectBoundingBox" id="filter-4">
            <feOffset dx="1" dy="1" in="SourceAlpha" result="shadowOffsetInner1"></feOffset>
            <feGaussianBlur stdDeviation="1.5" in="shadowOffsetInner1" result="shadowBlurInner1"></feGaussianBlur>
            <feComposite in="shadowBlurInner1" in2="SourceAlpha" operator="arithmetic" k2="-1" k3="1" result="shadowInnerInner1"></feComposite>
            <feColorMatrix values="0 0 0 0 1   0 0 0 0 1   0 0 0 0 1  0 0 0 0.35 0" in="shadowInnerInner1" type="matrix" result="shadowMatrixInner1"></feColorMatrix>
            <feMerge>
                <feMergeNode in="SourceGraphic"></feMergeNode>
                <feMergeNode in="shadowMatrixInner1"></feMergeNode>
            </feMerge>
        </filter>
        <filter x="-50%" y="-50%" width="200%" height="200%" filterUnits="objectBoundingBox" id="filter-5">
            <feOffset dx="1" dy="1" in="SourceAlpha" result="shadowOffsetInner1"></feOffset>
            <feGaussianBlur stdDeviation="1.5" in="shadowOffsetInner1" result="shadowBlurInner1"></feGaussianBlur>
            <feComposite in="shadowBlurInner1" in2="SourceAlpha" operator="arithmetic" k2="-1" k3="1" result="shadowInnerInner1"></feComposite>
            <feColorMatrix values="0 0 0 0 1   0 0 0 0 1   0 0 0 0 1  0 0 0 0.35 0" in="shadowInnerInner1" type="matrix" result="shadowMatrixInner1"></feColorMatrix>
            <feMerge>
                <feMergeNode in="SourceGraphic"></feMergeNode>
                <feMergeNode in="shadowMatrixInner1"></feMergeNode>
            </feMerge>
        </filter>
    </defs>
    <g id="Page-1" stroke="none" stroke-width="1" fill="none" fill-rule="evenodd" sketch:type="MSPage">
        <g id="Group" sketch:type="MSLayerGroup">
            <path d="M644.544484,0 L781,0 L803.800905,0 L840,42 L803.800905,82 L640,82 L640,0 L644.544484,0 Z" id="Path-5" fill="#FFB4BE" filter="url(#filter-1)" sketch:type="MSShapeGroup"></path>
            <path d="M484.544484,0 L621,0 L643.800905,0 L680,42 L643.800905,82 L480,82 L480,0 L484.544484,0 Z" id="Path-4" fill="#FB8494" filter="url(#filter-2)" sketch:type="MSShapeGroup"></path>
            <path d="M324.544484,0 L461,0 L483.800905,0 L520,42 L483.800905,82 L320,82 L320,0 L324.544484,0 Z" id="Path-3" fill="#FC687C" filter="url(#filter-3)" sketch:type="MSShapeGroup"></path>
            <path d="M164.544484,0 L301,0 L323.800905,0 L360,42 L323.800905,82 L160,82 L160,0 L164.544484,0 Z" id="Path-2" fill="#FB4655" filter="url(#filter-4)" sketch:type="MSShapeGroup"></path>
            <path d="M4.54448353,0 L141,0 L163.800905,0 L200,42 L163.800905,82 L0,82 L0,0 L4.54448353,0 Z" id="Path-1" fill="#CE1010" filter="url(#filter-5)" sketch:type="MSShapeGroup"></path>
            <text id="Generate-pagelet" sketch:type="MSTextLayer" font-family="Helvetica" font-size="18" font-weight="normal" sketch:alignment="middle" fill="#FFFFFF">
                <tspan x="20.4477539" y="47">Generate pagelet</tspan>
            </text>
            <text id="Send-it-to" sketch:type="MSTextLayer" font-family="Helvetica" font-size="18" font-weight="normal" sketch:alignment="middle" line-spacing="20" fill="#FFFFFF">
                <tspan x="222.995605" y="38">Send it to</tspan>
                <tspan x="214" y="58">the browser</tspan>
            </text>
            <text id="Download-CSS" sketch:type="MSTextLayer" font-family="Helvetica" font-size="18" font-weight="normal" sketch:alignment="middle" line-spacing="20" fill="#FFFFFF">
                <tspan x="359" y="38">Download CSS</tspan>
                <tspan x="380.515625" y="58">resources</tspan>
            </text>
            <text id="Download-JS" sketch:type="MSTextLayer" font-family="Helvetica" font-size="18" font-weight="normal" sketch:alignment="middle" line-spacing="20" fill="#FFFFFF">
                <tspan x="679.358887" y="33.8115234">Download JS</tspan>
                <tspan x="692.87207" y="53.8115234">resources</tspan>
            </text>
            <text id="Append-pagelet" sketch:type="MSTextLayer" font-family="Helvetica" font-size="18" font-weight="normal" sketch:alignment="middle" fill="#FFFFFF">
                <tspan x="530.442871" y="47">Append pagelet</tspan>
            </text>
        </g>
    </g>
</svg>

<svg viewBox="0 0 840 82" xmlns="http://www.w3.org/2000/svg" xmlns:sketch="http://www.bohemiancoding.com/sketch/ns"><title>Bigpipe - Sequence of steps.</title><defs><filter x="-50%" y="-50%" width="200%" height="200%" filterUnits="objectBoundingBox" id="a"><feOffset dx="1" dy="1" in="SourceAlpha" result="shadowOffsetInner1"/><feGaussianBlur stdDeviation="1.5" in="shadowOffsetInner1" result="shadowBlurInner1"/><feComposite in="shadowBlurInner1" in2="SourceAlpha" operator="arithmetic" k2="-1" k3="1" result="shadowInnerInner1"/><feColorMatrix values="0 0 0 0 1 0 0 0 0 1 0 0 0 0 1 0 0 0 0.35 0" in="shadowInnerInner1" result="shadowMatrixInner1"/><feMerge><feMergeNode in="SourceGraphic"/><feMergeNode in="shadowMatrixInner1"/></feMerge></filter><filter x="-50%" y="-50%" width="200%" height="200%" filterUnits="objectBoundingBox" id="b"><feOffset dx="1" dy="1" in="SourceAlpha" result="shadowOffsetInner1"/><feGaussianBlur stdDeviation="1.5" in="shadowOffsetInner1" result="shadowBlurInner1"/><feComposite in="shadowBlurInner1" in2="SourceAlpha" operator="arithmetic" k2="-1" k3="1" result="shadowInnerInner1"/><feColorMatrix values="0 0 0 0 1 0 0 0 0 1 0 0 0 0 1 0 0 0 0.35 0" in="shadowInnerInner1" result="shadowMatrixInner1"/><feMerge><feMergeNode in="SourceGraphic"/><feMergeNode in="shadowMatrixInner1"/></feMerge></filter><filter x="-50%" y="-50%" width="200%" height="200%" filterUnits="objectBoundingBox" id="c"><feOffset dx="1" dy="1" in="SourceAlpha" result="shadowOffsetInner1"/><feGaussianBlur stdDeviation="1.5" in="shadowOffsetInner1" result="shadowBlurInner1"/><feComposite in="shadowBlurInner1" in2="SourceAlpha" operator="arithmetic" k2="-1" k3="1" result="shadowInnerInner1"/><feColorMatrix values="0 0 0 0 1 0 0 0 0 1 0 0 0 0 1 0 0 0 0.35 0" in="shadowInnerInner1" result="shadowMatrixInner1"/><feMerge><feMergeNode in="SourceGraphic"/><feMergeNode in="shadowMatrixInner1"/></feMerge></filter><filter x="-50%" y="-50%" width="200%" height="200%" filterUnits="objectBoundingBox" id="d"><feOffset dx="1" dy="1" in="SourceAlpha" result="shadowOffsetInner1"/><feGaussianBlur stdDeviation="1.5" in="shadowOffsetInner1" result="shadowBlurInner1"/><feComposite in="shadowBlurInner1" in2="SourceAlpha" operator="arithmetic" k2="-1" k3="1" result="shadowInnerInner1"/><feColorMatrix values="0 0 0 0 1 0 0 0 0 1 0 0 0 0 1 0 0 0 0.35 0" in="shadowInnerInner1" result="shadowMatrixInner1"/><feMerge><feMergeNode in="SourceGraphic"/><feMergeNode in="shadowMatrixInner1"/></feMerge></filter><filter x="-50%" y="-50%" width="200%" height="200%" filterUnits="objectBoundingBox" id="e"><feOffset dx="1" dy="1" in="SourceAlpha" result="shadowOffsetInner1"/><feGaussianBlur stdDeviation="1.5" in="shadowOffsetInner1" result="shadowBlurInner1"/><feComposite in="shadowBlurInner1" in2="SourceAlpha" operator="arithmetic" k2="-1" k3="1" result="shadowInnerInner1"/><feColorMatrix values="0 0 0 0 1 0 0 0 0 1 0 0 0 0 1 0 0 0 0.35 0" in="shadowInnerInner1" result="shadowMatrixInner1"/><feMerge><feMergeNode in="SourceGraphic"/><feMergeNode in="shadowMatrixInner1"/></feMerge></filter></defs><g sketch:type="MSLayerGroup" fill="none"><path d="M644.544 0h159.25699999999998l36.199 42-36.199 40h-163.801v-82h4.544z" fill="#FFB4BE" filter="url(#a)" sketch:type="MSShapeGroup"/><path d="M484.544 0h159.25699999999998l36.199 42-36.199 40h-163.801v-82h4.544z" fill="#FB8494" filter="url(#b)" sketch:type="MSShapeGroup"/><path d="M324.544 0h159.25699999999998l36.199 42-36.199 40h-163.801v-82h4.544z" fill="#FC687C" filter="url(#c)" sketch:type="MSShapeGroup"/><path d="M164.544 0h159.25699999999998l36.199 42-36.199 40h-163.801v-82h4.544z" fill="#FB4655" filter="url(#d)" sketch:type="MSShapeGroup"/><path d="M4.544 0h159.25699999999998l36.199 42-36.199 40h-163.801v-82h4.544z" fill="#CE1010" filter="url(#e)" sketch:type="MSShapeGroup"/><text sketch:type="MSTextLayer" font-family="Helvetica" font-size="18" sketch:alignment="middle" fill="#fff"><tspan x="20.448" y="47">Generate pagelet</tspan></text><text sketch:type="MSTextLayer" font-family="Helvetica" font-size="18" sketch:alignment="middle" fill="#fff"><tspan x="222.996" y="38">Send it to</tspan><tspan x="214" y="58">the browser</tspan></text><text sketch:type="MSTextLayer" font-family="Helvetica" font-size="18" sketch:alignment="middle" fill="#fff"><tspan x="359" y="38">Download CSS</tspan><tspan x="380.516" y="58">resources</tspan></text><text sketch:type="MSTextLayer" font-family="Helvetica" font-size="18" sketch:alignment="middle" fill="#fff"><tspan x="679.359" y="33.812">Download JS</tspan><tspan x="692.872" y="53.812">resources</tspan></text><text sketch:type="MSTextLayer" font-family="Helvetica" font-size="18" sketch:alignment="middle" fill="#fff"><tspan x="530.443" y="47">Append pagelet</tspan></text></g></svg>
